images/icons/v2/timer-05-12.svg

<svg height="12" viewBox="0 0 12 12" width="12" xmlns="http://www.w3.org/2000/svg"><path d="m5.5.025a6 6 0 0 1 3.921 1.049l-.513.889a4.972 4.972 0 0 0 -3.408-.922zm5.036 8.017a4.966 4.966 0 0 1 -.5.866l.889.513a6 6 0 0 0 .5-.866zm-1.623 2a4.959 4.959 0 0 1 -.866.5l.508.88a6.014 6.014 0 0 0 .865-.5zm1.631-6.093.88-.508a6.014 6.014 0 0 0 -.5-.865l-.877.507a4.959 4.959 0 0 1 .497.87zm.416 2.551h1.014a6.07 6.07 0 0 0 0-1h-1.015a4.915 4.915 0 0 1 .001 1zm-9.006 2.413a4.959 4.959 0 0 1 -.5-.866l-.88.508a6.014 6.014 0 0 0 .5.865zm.627-7.837.506.878a4.959 4.959 0 0 1 .866-.5l-.507-.878a5.994 5.994 0 0 0 -.865.5zm3.919 9.883a4.915 4.915 0 0 1 -1 0v1.014a6.07 6.07 0 0 0 1 0zm-5.036-7a4.966 4.966 0 0 1 .5-.866l-.889-.513a6 6 0 0 0 -.5.866zm-.424 1.541h-1.014a6.07 6.07 0 0 0 0 1h1.015a4.915 4.915 0 0 1 -.001-1zm2.918 5.036a4.966 4.966 0 0 1 -.866-.5l-.513.889a6 6 0 0 0 .866.5zm3.826-8.125-2.433 3.214a.75.75 0 0 0 1.3.75l1.565-3.714z"/></svg>

<svg xmlns="http://www.w3.org/2000/svg" width="12" height="12" viewBox="0 0 12 12"><title>timer-05-12</title><path d="M5.5.025A6,6,0,0,1,9.421,1.074l-.513.889A4.972,4.972,0,0,0,5.5,1.041Zm5.036,8.017a4.966,4.966,0,0,1-.5.866l.889.513a6,6,0,0,0,.5-.866Zm-1.623,2a4.959,4.959,0,0,1-.866.5l.508.88a6.014,6.014,0,0,0,.865-.5Zm1.631-6.093.88-.508a6.014,6.014,0,0,0-.5-.865l-.877.507A4.959,4.959,0,0,1,10.544,3.953ZM10.96,6.5h1.014a6.07,6.07,0,0,0,0-1H10.959A4.915,4.915,0,0,1,10.96,6.5ZM1.954,8.913a4.959,4.959,0,0,1-.5-.866l-.88.508a6.014,6.014,0,0,0,.5.865Zm.627-7.837.506.878a4.959,4.959,0,0,1,.866-.5L3.446.576A5.994,5.994,0,0,0,2.581,1.076ZM6.5,10.959a4.915,4.915,0,0,1-1,0v1.014a6.07,6.07,0,0,0,1,0Zm-5.036-7a4.966,4.966,0,0,1,.5-.866l-.889-.513a6,6,0,0,0-.5.866ZM1.04,5.5H.026a6.07,6.07,0,0,0,0,1H1.041A4.915,4.915,0,0,1,1.04,5.5Zm2.918,5.036a4.966,4.966,0,0,1-.866-.5l-.513.889a6,6,0,0,0,.866.5ZM7.784,2.411,5.351,5.625a.75.75,0,0,0,1.3.75L8.216,2.661Z"/></svg>
